X: 4635
T: Bowman's Bottom
R: jig
M: 6/8
K: Eminor
BcB Baf|gfe def|cdc cef|gcg agf|
BcB Baf|gfe def|gaf gef|1 def dcA:|2 ded cAF||
|:~E3 BEc|~E3 dEc|ABG AGF|DAA BGF|
~E3 BEc|~E3 dEc|ABG AGF|1 GBB BGF:|2 GEE EFA||

